carriers/postIl.svg

<svg width="128" height="64" viewBox="0 0 128 64" fill="none" xmlns="http://www.w3.org/2000/svg">
<rect width="128" height="64" rx="6" fill="white"/>
<path fill-rule="evenodd" clip-rule="evenodd" d="M55.5873 14.1399C56.1763 14.3517 57.1884 14.684 57.963 14.7591C59.1945 14.879 60.2694 14.6718 60.877 14.3721L60.9264 14.8336C60.4777 15.2852 59.5949 15.6746 58.5467 15.8282C57.7901 15.9394 56.9358 15.8224 56.3736 15.7281C55.8097 15.6344 54.7394 15.3853 53.1622 15.7362C51.5856 16.086 50.016 17.1993 49.3567 17.7714C49.1896 17.9396 48.9464 18.1613 48.7421 18.3615C49.1582 18.3732 49.636 18.4203 50.1371 18.5041C50.5427 18.5716 51.9104 18.8958 52.2631 18.9371C53.4445 19.0756 54.495 18.9295 55.0781 18.5984L55.0717 19.0326C54.7929 19.5342 53.5603 19.8549 51.9709 19.8654C51.4983 19.9189 49.7291 19.7525 49.5813 19.7525C48.8544 19.7525 48.234 19.9894 47.9948 20.3205C47.0101 21.4629 47.8633 23.9951 49.9578 26.0606L43.0468 26.3149C42.7378 26.3393 41.2462 26.3434 41.0413 26.3318C38.2391 26.1758 36.5164 25.0817 36.6514 23.8874C36.691 23.5493 36.8592 23.139 37.2876 22.9679L44.4541 20.1436C45.6454 18.4 47.7993 16.1949 50.9519 14.4489C52.2974 13.7034 53.6354 13.115 54.9087 12.6971C54.9087 12.6971 56.0198 12.3637 58.0852 11.5215C60.0116 10.7364 61.2424 9.05104 61.509 8.72921L61.6504 9.68132C61.5416 10.002 60.824 11.7927 59.0926 12.874C57.3362 13.9717 55.6898 14.123 55.5873 14.1399Z" fill="#CA151D"/>
<path d="M47.1361 33.4588C45.4501 33.4006 43.7519 33.3709 42.0415 33.3709C27.8534 33.3709 15.3024 35.4096 6 38.7903C14.4003 34.174 26.0277 30.7735 39.0664 29.3518C41.2581 29.1137 43.6087 28.9408 45.8715 28.818L47.1361 33.4588Z" fill="#CA151D"/>
<path d="M84.8633 37.9253L84.8813 37.8846C90.388 39.2691 95.6305 40.9842 100.486 42.9472C109.1 46.4274 116.497 50.6875 122 55.2706C113.607 50.2336 101.848 45.8787 88.12 43.1649C88.12 43.1649 86.6831 42.8873 86.2001 42.7971L84.8633 37.9253Z" fill="#CA151D"/>
<path fill-rule="evenodd" clip-rule="evenodd" d="M53.9698 31.1298C53.9319 30.9959 53.7725 30.8748 53.6328 30.8748H47.9119L47.3096 28.7355H53.1917C54.7316 28.7355 55.6418 29.332 56.0823 31.0145C56.6154 33.0555 57.0839 34.7508 57.4005 35.9148H55.2524L53.9698 31.1298Z" fill="#CA151D"/>
<path fill-rule="evenodd" clip-rule="evenodd" d="M71.1451 30.8751L70.5713 28.7352H78.5363L79.0996 30.8751H78.7586C78.5142 30.8751 78.3559 31.0829 78.4222 31.318L79.6671 35.9139H77.5062L76.2223 31.1306C76.1845 30.9974 76.025 30.8763 75.8865 30.8763L71.1451 30.8751Z" fill="#CA151D"/>
<path fill-rule="evenodd" clip-rule="evenodd" d="M60.149 29.3414L63.1264 31.7054C63.365 31.8899 63.6216 31.7636 63.6647 31.4825L64.0878 28.735H66.4367L65.6557 33.4886C65.6434 33.5858 65.7092 33.7516 65.7849 33.8122L68.4573 35.9137H65.4485L60.0436 31.6303C59.7451 31.3981 59.3906 31.6361 59.4925 31.9993L60.547 35.9137H58.3937L56.8724 30.2435C56.6577 29.4764 56.8456 28.9137 57.3665 28.6262C58.3745 28.2583 59.2923 28.6884 60.149 29.3414Z" fill="#CA151D"/>
<path fill-rule="evenodd" clip-rule="evenodd" d="M67.387 28.7352H69.5316L71.4597 35.9139H69.3087L67.387 28.7352Z" fill="#CA151D"/>
<path fill-rule="evenodd" clip-rule="evenodd" d="M66.0173 40.2407C65.9795 40.1075 65.82 39.9858 65.6815 39.9858H60.2389L59.6348 37.8459H65.2392C66.7797 37.8459 67.6894 38.4436 68.1299 40.1255C68.6624 42.1665 69.1321 43.8612 69.4481 45.0258H67.2989L66.0173 40.2407Z" fill="#CA151D"/>
<path fill-rule="evenodd" clip-rule="evenodd" d="M74.1677 42.8854C74.4092 42.8807 74.5623 42.6741 74.4959 42.4431C73.996 40.5359 73.5572 38.9518 73.2563 37.8454H75.405L76.6871 42.6305C76.7255 42.7643 76.8843 42.8854 77.0234 42.8854H78.9289C79.1715 42.8854 79.331 42.6782 79.2647 42.4431L78.0332 37.8454H80.1865L81.5093 42.8033C81.8341 44.0034 81.1153 45.0253 79.9636 45.0253L72.7104 45.0265C71.1693 45.0265 70.2591 44.4276 69.8197 42.7457C69.2849 40.7047 68.8175 39.01 68.4998 37.8454H70.6496L71.9311 42.6305C71.9689 42.7643 72.1273 42.8854 72.2669 42.8854H74.1677Z" fill="#CA151D"/>
<path fill-rule="evenodd" clip-rule="evenodd" d="M81.1909 37.8458H83.3425L84.297 41.4192H82.1489L81.1909 37.8458Z" fill="#CA151D"/>
<path fill-rule="evenodd" clip-rule="evenodd" d="M52.7808 38.4523L55.7582 40.8163C55.9968 41.0013 56.2547 40.8751 56.2966 40.5934L56.7197 37.8458H59.0685L58.2881 42.6C58.2736 42.6972 58.3387 42.8619 58.4167 42.9242L61.0868 45.0258H58.0803L52.6749 40.7412C52.3775 40.5096 52.0213 40.747 52.1238 41.1102L53.1801 45.0258H51.025L49.5049 39.3549C49.2878 38.5885 49.4775 38.024 49.9995 37.737C51.004 37.3704 51.9236 37.7987 52.7808 38.4523Z" fill="#CA151D"/>
<path fill-rule="evenodd" clip-rule="evenodd" d="M48.7034 40.1252C48.9828 41.1909 49.0363 41.3922 49.0625 41.4737L49.1015 41.5953L49.24 42.0929L49.4099 42.8018C49.7341 44.0012 49.0148 45.0255 47.863 45.0255H45.3466L44.7652 42.8856H46.8283C47.0727 42.8856 47.2316 42.6778 47.1652 42.4433L46.5518 40.1555C46.4762 40.0601 46.3668 39.9856 46.2556 39.9856H38.7341L37.6865 36.1131H39.8515L40.249 37.6064C40.288 37.7467 40.4451 37.8456 40.5766 37.8456H45.7877C47.3544 37.8456 48.2646 38.4439 48.7034 40.1252Z" fill="#CA151D"/>
</svg>

<svg xmlns="http://www.w3.org/2000/svg" width="128" height="64" fill="none"><rect width="128" height="64" fill="#fff" rx="6"/><path fill="#CA151D" fill-rule="evenodd" d="M55.587 14.14c.59.212 1.601.544 2.376.62 1.231.119 2.306-.088 2.914-.388l.05.462c-.45.451-1.332.84-2.38.994-.757.111-1.611-.006-2.173-.1-.564-.094-1.635-.343-3.212.008-1.576.35-3.146 1.463-3.805 2.035-.167.169-.41.39-.615.59.416.012.894.06 1.395.143.406.068 1.773.392 2.126.433 1.181.139 2.232-.008 2.815-.339l-.006.435c-.28.501-1.512.822-3.101.832-.473.054-2.242-.112-2.39-.112-.727 0-1.347.236-1.586.567-.985 1.143-.132 3.675 1.963 5.74l-6.911.255c-.31.024-1.8.028-2.006.017-2.802-.156-4.525-1.25-4.39-2.445.04-.338.208-.748.637-.92l7.166-2.823c1.191-1.744 3.345-3.95 6.498-5.695a23.113 23.113 0 0 1 3.957-1.752s1.11-.333 3.176-1.175c1.927-.786 3.157-2.471 3.424-2.793l.141.952c-.108.321-.826 2.112-2.557 3.193-1.757 1.098-3.403 1.249-3.506 1.266Z" clip-rule="evenodd"/><path fill="#CA151D" d="M47.136 33.459a147.661 147.661 0 0 0-5.095-.088C27.853 33.37 15.302 35.41 6 38.79c8.4-4.617 20.028-8.017 33.066-9.44a128.9 128.9 0 0 1 6.805-.533l1.265 4.64ZM84.863 37.925l.018-.04c5.507 1.384 10.75 3.1 15.605 5.062 8.614 3.48 16.011 7.74 21.514 12.324-8.393-5.037-20.152-9.392-33.88-12.106 0 0-1.437-.278-1.92-.368l-1.337-4.872Z"/><path fill="#CA151D" fill-rule="evenodd" d="M53.97 31.13a.385.385 0 0 0-.337-.255h-5.721l-.602-2.14h5.882c1.54 0 2.45.597 2.89 2.28.533 2.04 1.002 3.736 1.319 4.9h-2.149L53.97 31.13ZM71.145 30.875l-.574-2.14h7.965l.564 2.14h-.341a.338.338 0 0 0-.337.443l1.245 4.596h-2.16l-1.285-4.783a.386.386 0 0 0-.335-.255h-4.742ZM60.149 29.341l2.977 2.364c.239.185.496.059.539-.222l.423-2.748h2.349l-.781 4.754a.443.443 0 0 0 .129.323l2.672 2.102H65.45l-5.405-4.284c-.299-.232-.653.006-.551.37l1.054 3.914h-2.153l-1.522-5.67c-.214-.768-.026-1.33.495-1.618 1.008-.368 1.925.062 2.782.715ZM67.387 28.735h2.145l1.928 7.179h-2.151l-1.922-7.179ZM66.017 40.24a.386.386 0 0 0-.335-.254h-5.443l-.604-2.14h5.604c1.54 0 2.45.598 2.89 2.28.533 2.04 1.003 3.735 1.32 4.9h-2.15l-1.282-4.785ZM74.168 42.885a.336.336 0 0 0 .328-.442c-.5-1.907-.939-3.491-1.24-4.598h2.149l1.282 4.785a.386.386 0 0 0 .336.255h1.906a.338.338 0 0 0 .336-.442l-1.232-4.598h2.153l1.323 4.958c.325 1.2-.394 2.222-1.545 2.222l-7.254.002c-1.54 0-2.45-.6-2.89-2.281-.535-2.041-1.002-3.736-1.32-4.9h2.15l1.281 4.785a.384.384 0 0 0 .336.254h1.9ZM81.19 37.846h2.153l.954 3.573h-2.148l-.958-3.573ZM52.78 38.452l2.978 2.364c.239.185.497.06.539-.223l.423-2.747h2.349l-.78 4.754a.429.429 0 0 0 .128.324l2.67 2.102H58.08l-5.405-4.285c-.297-.231-.654.006-.551.37l1.056 3.915h-2.155l-1.52-5.671c-.217-.766-.028-1.331.494-1.618 1.005-.367 1.925.062 2.782.715ZM48.703 40.125c.28 1.066.333 1.267.36 1.349l.038.121.139.498.17.709c.324 1.2-.395 2.224-1.547 2.224h-2.516l-.582-2.14h2.063a.338.338 0 0 0 .337-.443l-.613-2.287c-.076-.096-.185-.17-.296-.17h-7.522l-1.047-3.873h2.165l.397 1.493c.039.14.196.24.328.24h5.21c1.567 0 2.478.598 2.916 2.28Z" clip-rule="evenodd"/></svg>
